www/assets/icons/sports_gymnastics.svg

<svg xmlns="http://www.w3.org/2000/svg" width="24" height="24" viewBox="0 0 24 24" fill='currentColor'><path d="M4 5c0-1.1.9-2 2-2s2 .9 2 2-.9 2-2 2-2-.9-2-2M1 8h6l7-5 1.31 1.52-4.17 2.98H14L21.8 3 23 4.4 14.5 11 14 21h-2l-.5-10L8 10H1z"/></svg>

<svg width="24" height="24" viewBox="0 0 24 24" xmlns="http://www.w3.org/2000/svg" fill='currentColor'><path d="M4 5C4 3.9 4.9 3 6 3C7.1 3 8 3.9 8 5C8 6.1 7.1 7 6 7C4.9 7 4 6.1 4 5ZM1 8H7L14 3L15.31 4.52L11.14 7.5H14L21.8 3L23 4.4L14.5 11L14 21H12L11.5 11L8 10H1V8Z"/></svg>
